src/components/icons/assets/licences/food-stall.svg

<svg xmlns="http://www.w3.org/2000/svg" width="48" height="48" viewBox="0 0 48 48">
    <path fill="currentColor" fill-rule="evenodd" d="M11.75,10.25 L36.25,10.25 L36.25,6.81944444 C36.25,6.0907354 35.6903559,5.5 35,5.5 L13,5.5 C12.3096441,5.5 11.75,6.0907354 11.75,6.81944444 L11.75,10.25 L11.75,10.25 Z M37.75,10.6613416 L43.5,14.3143253 L43.5,17.308957 C43.5,19.9663397 41.3473636,22.121202 38.6911765,22.121202 C36.5584898,22.121202 34.7504267,20.7320291 34.1205752,18.808957 L33.4676601,18.808957 C32.8378086,20.7320291 31.0297455,22.121202 28.8970588,22.121202 C26.7643722,22.121202 24.956309,20.7320291 24.3264576,18.808957 L23.6735424,18.808957 C23.043691,20.7320291 21.2356278,22.121202 19.1029412,22.121202 C16.9702545,22.121202 15.1621914,20.7320291 14.5323399,18.808957 L13.8794248,18.808957 C13.2684822,20.6742963 11.5490087,22.0373116 9.5,22.1174691 L9.5,43.75 L8,43.75 L8,21.9408235 C5.98005489,21.3703922 4.5,19.5124297 4.5,17.308957 L4.5,14.3143253 L10.25,10.6613416 L10.25,6.75 C10.25,5.23121694 11.4812169,4 13,4 L35,4 C36.5187831,4 37.75,5.23121694 37.75,6.75 L37.75,10.6613416 Z M6,17.308957 C6,19.1382594 7.48141075,20.621202 9.30882353,20.621202 C11.1362363,20.621202 12.6176471,19.1382594 12.6176471,17.308957 L15.7941176,17.308957 C15.7941176,19.1382594 17.2755284,20.621202 19.1029412,20.621202 C20.930354,20.621202 22.4117647,19.1382594 22.4117647,17.308957 L25.5882353,17.308957 C25.5882353,19.1382594 27.069646,20.621202 28.8970588,20.621202 C30.7244716,20.621202 32.2058824,19.1382594 32.2058824,17.308957 L35.3823529,17.308957 C35.3823529,19.1382594 36.8637637,20.621202 38.6911765,20.621202 C40.5185892,20.621202 42,19.1382594 42,17.308957 L42,15.1384825 L36.6663396,11.75 L11.3336604,11.75 L6,15.1384825 L6,17.308957 Z" id="black"></path>
    <path fill="currentColor" fill-rule="evenodd" d="M35.75,37.65 L35.75,44 L34.25,44 L34.25,37.65 L32,37.65 L32,36.15 L38,36.15 L38,37.65 L35.75,37.65 L35.75,37.65 Z M17.75,33.65 L17.75,40 L16.25,40 L16.25,33.65 L14,33.65 L14,32.15 L20,32.15 L20,33.65 L17.75,33.65 Z M41.75,33.65 L41.75,40 L40.25,40 L40.25,33.65 L38,33.65 L38,32.15 L44,32.15 L44,33.65 L41.75,33.65 L41.75,33.65 Z M23.75,37.65 L23.75,44 L22.25,44 L22.25,37.65 L20,37.65 L20,36.15 L26,36.15 L26,37.65 L23.75,37.65 Z M29.75,31.65 L29.75,42 L28.25,42 L28.25,31.65 L22,31.65 L22,30.15 L36,30.15 L36,31.65 L29.75,31.65 Z" id="indigo"></path>
</svg>

<svg xmlns="http://www.w3.org/2000/svg" width="48" height="48" viewBox="0 0 48 48">
    <defs>
        <linearGradient id="a" x1="0%" y1="39.343%" y2="60.657%">
            <stop offset="0%" stop-color="#60F"/>
            <stop offset="100%" stop-color="#95E"/>
        </linearGradient>
    </defs>
    <g fill="none" fill-rule="evenodd">
        <path fill="#161A1D" d="M11.75 10.25h24.5V6.82c0-.73-.56-1.32-1.25-1.32H13c-.69 0-1.25.59-1.25 1.32v3.43zm26 .411l5.75 3.653v2.995a4.81 4.81 0 0 1-4.809 4.812 4.811 4.811 0 0 1-4.57-3.312h-.653a4.811 4.811 0 0 1-9.142 0h-.652a4.811 4.811 0 0 1-9.142 0h-.653A4.812 4.812 0 0 1 9.5 22.117V43.75H8V21.94a4.814 4.814 0 0 1-3.5-4.631v-2.995l5.75-3.653V6.75A2.75 2.75 0 0 1 13 4h22a2.75 2.75 0 0 1 2.75 2.75v3.911zM6 17.31a3.31 3.31 0 0 0 3.309 3.312 3.31 3.31 0 0 0 3.309-3.312h3.176a3.31 3.31 0 0 0 3.309 3.312 3.31 3.31 0 0 0 3.309-3.312h3.176a3.31 3.31 0 0 0 3.31 3.312 3.31 3.31 0 0 0 3.308-3.312h3.176a3.31 3.31 0 0 0 3.31 3.312A3.31 3.31 0 0 0 42 17.31v-2.17l-5.334-3.389H11.334L6 15.138v2.171z"/>
        <path fill="url(#a)" d="M35.75 37.65V44h-1.5v-6.35H32v-1.5h6v1.5h-2.25zm-18-4V40h-1.5v-6.35H14v-1.5h6v1.5h-2.25zm24 0V40h-1.5v-6.35H38v-1.5h6v1.5h-2.25zm-18 4V44h-1.5v-6.35H20v-1.5h6v1.5h-2.25zm6-6V42h-1.5V31.65H22v-1.5h14v1.5h-6.25z"/>
    </g>
</svg>
